dist/img/svg/gear.svg

<svg width="24" height="25" viewBox="0 0 24 25" fill="none" xmlns="http://www.w3.org/2000/svg">
<path fill-rule="evenodd" clip-rule="evenodd" d="M21 7.5L12 2.5L3 7.5V17.5L12 22.5L21 17.5V7.5ZM12 15.8333C13.9132 15.8333 15.4641 14.341 15.4641 12.5C15.4641 10.6591 13.9132 9.16667 12 9.16667C10.0868 9.16667 8.5359 10.6591 8.5359 12.5C8.5359 14.341 10.0868 15.8333 12 15.8333Z" stroke="#919191" stroke-linejoin="round"/>
</svg>

<svg width="24" height="25" viewBox="0 0 24 25" fill="none" xmlns="http://www.w3.org/2000/svg"><path fill-rule="evenodd" clip-rule="evenodd" d="M21 7.5l-9-5-9 5v10l9 5 9-5v-10zm-9 8.333c1.913 0 3.464-1.492 3.464-3.333 0-1.84-1.55-3.333-3.464-3.333-1.913 0-3.464 1.492-3.464 3.333 0 1.841 1.55 3.333 3.464 3.333z" stroke="#919191" stroke-linejoin="round"/></svg>
